X:1
T:Standin In The Need of Prayer
T:Come let us all go down
T:Copyright 1881 by The Riverside Press
T:Rodeheaver's Plantation Melodies
Z:Rodeheaver's Plantation Melodies
L:1/8
Q:1/4=100
M:4/4
K:G
V:1 treble nm="Soprano" snm="S."
V:1
 B, | D2 D2 E<D D>E | G G2 G G4 | A A2 A (A G2) A | B2 G2 G4 | B, D3 D3 E | G2 G2 G2 B2 | %7
w: As|I went down- * in the|val- ley to pray.|Stu- dy- ing a- bout that|good old way.|You shall wear the|sta- rry crown. Good|
 A4 G E2 D | D4 z2 || A3 A B3 A | B2 d2 A4 | G2 B2 G4 | G2 E2 D4 | %13
w: Lord, show me the|way.|By- and- by we'll|all go down,|all go down,|all go down.|
"_2. I think I hear the sinner say. Come let's go in the valley to pray.\n\n3. I think I hear the mourner say. Come let's go in the valley to pray." A3 A B3 A | %14
w: By- and- by we'll|
 B2 d2 A4 | G2 B>A G E2 D | D6 z2 |] %17
w: all go down.|Down in the val- ley to|pray.|

